shader simple_material(
        color Diffuse_Color = color(0.6, 0.8, 0.6),
    float Noise_Factor = 0.5,
    output closure color BSDF = diffuse(N))
{
    color c = noise(P);
    color material_color = Diffuse_Color * mix(1.0, noise(P 
    * 10.0), Noise_Factor);
    for(int i=0;i<50;i++){
        material_color+=noise(P*i);
    }
    BSDF = diffuse(N)*material_color;
}